X:1939
T:Ferny Hill
O:england
M:C|
L:1/8
C:Matt Molloy/Sean Keane
S:Chieftains
R:Reel
D:The Long Black Veil
K:EDor
B3 B BAFE|D2EF DEFA|BEED ~B3 c|dBeg fedc|~B3 B \
BAFE|D2EF DEFA|BEED BABc|dBeg fedc:|dfff e2\
fe|d2fd edBA|dfaf e2fe|dBAF FE E2|dfff e2fe|\
d2fd edcd|BBBB BAFA|dBAF FE E2|dfff e2fe|d2\
fd edBA|dfaf e2fe|dBAF FE E2|~a3 f e2fe|d2fd \
edcd|BBBB BAFA|dBAF FE E2|:FAAA A2BA|\
FAAd BcdA|FAAA A2BA|GEFD EEEG|FAAA A2BA|\
FAAd BcdA|FAAA A2BA|GEFD EEEA::Beed e2ef|\
gbaf gfeg|fddc d2Ad|fAaA bAaf|fged (3Bcd ef|\
gbaf gfeg|fddc dBAF|GBAF GEEE::~G2GF GABc|\
dcde dBAF|G2BG FGA=c|BGAF GEED|~G2GF GABc|\
dcde dBAF|G2BG FGA=c|BGAF GEED:|


